X:9
T:Whe airl as a last
T:Charst ic Macic
Z:id:hn-hornpipe-12
M:C|
K:G
FE|D2F2 dAGB|A2FA BcBB|(3


*****************************


10500 2 2.137622 

<startolet>
Z:id:hn-hornpipe-24
M:C|
K:C
BA|dcAB A2FG|ABcA ec Ac|edcA AGBd|
gfg2 eAFA|~B3G AGFA|=G2GA Bde


*****************************


10600 2 0.9391957 

<start>
